.storybook/public/story-assets/logo-svg_12-12_tablet_dark.svg

<svg width="600" height="160" viewBox="0 0 600 160" fill="none" xmlns="http://www.w3.org/2000/svg">
<path fill-rule="evenodd" clip-rule="evenodd" d="M76.4604 31.5H68.4604V50.5H76.4604V31.5ZM78.4604 50.5H107.96H108.96H147.958C147.437 39.9189 138.693 31.5 127.983 31.5H78.4604V50.5ZM147.958 52.5H108.96H107.96H78.4604V71.5H127.983C138.693 71.5 147.437 63.0811 147.958 52.5ZM76.4604 71.5V52.5H68.4604V71.5H76.4604ZM66.4604 52.5H65.9604H28C28.521 63.0811 37.2651 71.5 47.9754 71.5H66.4604V52.5ZM66.4604 50.5V31.5H47.9754C37.2651 31.5 28.521 39.9189 28 50.5H65.9604H66.4604Z" fill="white"/>
<path fill-rule="evenodd" clip-rule="evenodd" d="M230.652 31.5H219.958C215.54 31.5 211.958 35.0817 211.958 39.5V50.37H230.652V31.5ZM211.958 52.37V63.5C211.958 67.9183 215.54 71.5 219.958 71.5H230.652V71.4515V52.37H211.958ZM232.652 71.5H243.958C248.376 71.5 251.958 67.9183 251.958 63.5V52.37H232.652V71.4515V71.5ZM251.958 50.37V39.5C251.958 35.0817 248.376 31.5 243.958 31.5H232.652V50.37H251.958Z" fill="white"/>
<path fill-rule="evenodd" clip-rule="evenodd" d="M354.563 31.5H337.39L345.977 40.0862L354.563 31.5ZM334.562 31.5H323.958C319.54 31.5 315.958 35.0817 315.958 39.5V63.5C315.958 65.3536 316.588 67.0599 317.646 68.4163L344.562 41.5004L334.562 31.5ZM319.063 69.8281C320.416 70.8762 322.114 71.5 323.958 71.5H374.562L345.977 42.9146L319.063 69.8281ZM377.39 71.5H408.032C412.451 71.5 416.032 67.9183 416.032 63.5V39.5C416.032 35.0817 412.451 31.5 408.032 31.5H357.391L347.391 41.5004L377.39 71.5Z" fill="white"/>
<path fill-rule="evenodd" clip-rule="evenodd" d="M529.994 34.2229C529.82 33.651 529.58 33.1391 529.274 32.6873C528.974 32.2283 528.612 31.8365 528.188 31.5117C527.77 31.1869 527.29 30.9433 526.747 30.7809C526.204 30.6115 525.612 30.5267 524.972 30.5267C523.823 30.5267 522.8 30.8198 521.902 31.4058C521.004 31.9918 520.297 32.8532 519.782 33.9899C519.274 35.1196 519.02 36.4964 519.02 38.1204C519.02 39.7584 519.274 41.1458 519.782 42.2825C520.29 43.4193 520.997 44.2842 521.902 44.8773C522.807 45.4633 523.858 45.7563 525.055 45.7563C526.141 45.7563 527.081 45.5445 527.874 45.1209C528.675 44.6972 529.291 44.0971 529.723 43.3204C530.135 42.5711 530.351 41.6991 530.369 40.7045H525.442V37.6332H534.119V40.2385C534.119 42.0954 533.729 43.7017 532.949 45.0573C532.169 46.413 531.097 47.4579 529.733 48.1922C528.369 48.9195 526.802 49.2831 525.034 49.2831C523.064 49.2831 521.334 48.8347 519.845 47.938C518.362 47.0343 517.203 45.7528 516.368 44.0936C515.539 42.4273 515.125 40.4503 515.125 38.1627C515.125 36.4117 515.369 34.8478 515.856 33.471C516.35 32.0942 517.039 30.9257 517.924 29.9654C518.808 28.9981 519.845 28.2638 521.035 27.7625C522.226 27.2542 523.52 27 524.919 27C526.103 27 527.206 27.1765 528.229 27.5295C529.253 27.8755 530.161 28.3697 530.955 29.0123C531.755 29.6548 532.413 30.4173 532.928 31.2999C533.443 32.1824 533.781 33.1568 533.941 34.2229H529.994ZM480.032 27.2965V48.9865H483.906V41.6577H487.999C489.649 41.6577 491.038 41.3506 492.165 40.7363C493.293 40.115 494.146 39.2642 494.724 38.1839C495.301 37.1036 495.59 35.868 495.59 34.4771C495.59 33.1003 495.301 31.8718 494.724 30.7915C494.153 29.7042 493.307 28.8499 492.186 28.2285C491.073 27.6072 489.694 27.2965 488.051 27.2965H480.032ZM483.906 38.4275H487.477C488.438 38.4275 489.224 38.258 489.837 37.9191C490.45 37.5802 490.902 37.1142 491.194 36.5211C491.494 35.9281 491.643 35.2467 491.643 34.4771C491.643 33.7075 491.494 33.0297 491.194 32.4437C490.902 31.8577 490.446 31.4022 489.827 31.0775C489.214 30.7456 488.424 30.5797 487.456 30.5797H483.906V38.4275ZM494.595 48.9865H498.73L500.498 43.6382H508.538L510.31 48.9865H514.445L506.906 27.2965H502.123L494.595 48.9865ZM507.492 40.4821L504.598 31.7447H504.431L501.542 40.4821H507.492ZM537.276 27.2965V48.9865H551.268V45.6928H541.15V39.7725H550.464V36.4788H541.15V30.5903H551.185V27.2965H537.276ZM543.428 53.7169C544.451 53.724 545.447 53.9076 546.414 54.2677C547.389 54.6207 548.266 55.1996 549.045 56.0045C549.825 56.8024 550.445 57.8721 550.904 59.2136C551.363 60.5551 551.593 62.2143 551.593 64.1912C551.6 66.0552 551.405 67.7215 551.008 69.1901C550.619 70.6516 550.058 71.8872 549.327 72.8969C548.596 73.9066 547.716 74.6761 546.686 75.2057C545.655 75.7352 544.496 76 543.209 76C541.858 76 540.661 75.7317 539.617 75.1951C538.579 74.6585 537.741 73.9242 537.1 72.9922C536.46 72.0602 536.066 70.9941 535.92 69.7938H539.731C539.926 70.6552 540.323 71.34 540.922 71.8484C541.527 72.3497 542.29 72.6003 543.209 72.6003C544.691 72.6003 545.833 71.9473 546.633 70.6411C547.434 69.3349 547.834 67.5203 547.834 65.1974H547.688C547.347 65.8187 546.905 66.3553 546.362 66.8072C545.819 67.252 545.203 67.5944 544.514 67.8345C543.832 68.0745 543.108 68.1946 542.342 68.1946C541.089 68.1946 539.961 67.891 538.959 67.2838C537.963 66.6766 537.173 65.8434 536.589 64.7843C536.011 63.7252 535.718 62.5144 535.711 61.1517C535.711 59.7396 536.032 58.4722 536.672 57.3496C537.319 56.2199 538.221 55.3303 539.376 54.6807C540.532 54.0241 541.882 53.7028 543.428 53.7169ZM543.438 56.8942C542.686 56.8942 542.008 57.0813 541.402 57.4555C540.803 57.8226 540.33 58.3239 539.982 58.9594C539.641 59.5878 539.47 60.2903 539.47 61.067C539.477 61.8366 539.648 62.5355 539.982 63.1639C540.323 63.7923 540.786 64.2901 541.371 64.6572C541.963 65.0244 542.638 65.208 543.396 65.208C543.96 65.208 544.486 65.0985 544.973 64.8796C545.46 64.6608 545.885 64.3572 546.247 63.9688C546.616 63.5734 546.901 63.1251 547.103 62.6238C547.312 62.1225 547.413 61.593 547.406 61.0352C547.406 60.2938 547.232 59.609 546.884 58.9806C546.543 58.3522 546.073 57.8473 545.474 57.4661C544.883 57.0848 544.204 56.8942 543.438 56.8942ZM533.253 61.3317H529.348C529.237 60.6822 529.031 60.1067 528.732 59.6054C528.433 59.0971 528.06 58.6664 527.615 58.3133C527.169 57.9603 526.661 57.6955 526.09 57.519C525.526 57.3355 524.917 57.2437 524.263 57.2437C523.1 57.2437 522.07 57.5402 521.172 58.1333C520.274 58.7193 519.571 59.5807 519.063 60.7175C518.555 61.8471 518.301 63.2275 518.301 64.8585C518.301 66.5177 518.555 67.9157 519.063 69.0524C519.578 70.1821 520.281 71.0364 521.172 71.6154C522.07 72.1873 523.097 72.4733 524.252 72.4733C524.893 72.4733 525.492 72.3885 526.048 72.2191C526.612 72.0426 527.117 71.7849 527.562 71.446C528.015 71.107 528.394 70.6905 528.701 70.1962C529.014 69.702 529.23 69.1372 529.348 68.5017L533.253 68.5229C533.107 69.5537 532.79 70.521 532.303 71.4248C531.823 72.3285 531.193 73.1264 530.413 73.8183C529.633 74.5032 528.721 75.0398 527.677 75.4281C526.633 75.8094 525.474 76 524.2 76C522.321 76 520.643 75.5587 519.167 74.6761C517.692 73.7936 516.529 72.5192 515.68 70.8529C514.831 69.1866 514.406 67.1884 514.406 64.8585C514.406 62.5214 514.834 60.5233 515.69 58.8641C516.546 57.1978 517.712 55.9233 519.188 55.0408C520.664 54.1582 522.335 53.7169 524.2 53.7169C525.391 53.7169 526.497 53.8864 527.521 54.2253C528.544 54.5642 529.456 55.062 530.256 55.7186C531.057 56.3682 531.715 57.166 532.23 58.1121C532.752 59.0512 533.093 60.1244 533.253 61.3317ZM562.71 54.0135H554.691V75.7035H558.565V67.7603H562.507L566.709 75.7035H571.032L566.407 67.1165C566.546 67.0595 566.682 66.9988 566.814 66.9343C567.941 66.3765 568.794 65.5892 569.372 64.5725C569.957 63.5487 570.249 62.3414 570.249 60.9505C570.249 59.5666 569.96 58.3557 569.382 57.3178C568.812 56.2728 567.966 55.4609 566.845 54.8819C565.731 54.303 564.353 54.0135 562.71 54.0135ZM558.565 64.4984H562.136C563.097 64.4984 563.883 64.3642 564.496 64.0959C565.108 63.8206 565.561 63.4216 565.853 62.8992C566.152 62.3696 566.302 61.7201 566.302 60.9505C566.302 60.1809 566.152 59.5242 565.853 58.9806C565.554 58.4298 565.098 58.0133 564.485 57.7308C563.873 57.4414 563.083 57.2966 562.115 57.2966H558.565V64.4984ZM554.495 27.24H570.422V48.9864H554.495V27.24ZM511.615 53.9571H480.067V75.7035H511.615V53.9571Z" fill="white"/>
<path fill-rule="evenodd" clip-rule="evenodd" d="M173.192 93H144.479C133.813 93 125.097 101.35 124.511 111.87H173.192V93ZM124.498 113.87C124.954 124.512 133.725 133 144.479 133H173.192V132.951V113.87H124.498ZM175.192 133H204.554C215.308 133 224.08 124.512 224.535 113.87H224.433H175.192V132.951V133ZM224.523 111.87C223.937 101.35 215.22 93 204.554 93H175.192V111.87H224.433H224.523Z" fill="white"/>
<path fill-rule="evenodd" clip-rule="evenodd" d="M295.035 93.1404C291.334 93.8425 288.535 97.0944 288.535 101V112H295.035V93.1404ZM288.535 114V125C288.535 128.906 291.334 132.157 295.035 132.86V114H288.535ZM297.035 133H320.535C324.953 133 328.535 129.418 328.535 125V114H297.035V133ZM328.535 112V101C328.535 96.5817 324.953 93 320.535 93H297.035V112H328.535Z" fill="white"/>
<path fill-rule="evenodd" clip-rule="evenodd" d="M355.035 93H338.535C334.117 93 330.535 96.5817 330.535 101V102H355.035V93ZM330.535 104V125C330.535 129.418 334.117 133 338.535 133H355.035V104H330.535ZM357.035 133H362.535C366.953 133 370.535 129.418 370.535 125V104H357.035V133ZM370.535 102V101C370.535 96.5817 366.953 93 362.535 93H357.035V102H370.535Z" fill="white"/>
<path fill-rule="evenodd" clip-rule="evenodd" d="M439.704 99.5825C436.492 103.131 434.535 107.837 434.535 113C434.535 118.097 436.442 122.749 439.581 126.281L452.991 112.87L439.704 99.5825ZM441.118 98.1683L454.405 111.456L467.816 98.0455C464.284 94.9066 459.632 93 454.535 93C449.372 93 444.666 94.9564 441.118 98.1683ZM469.243 99.4468L455.82 112.87L469.312 126.363L469.367 126.417C472.579 122.869 474.535 118.163 474.535 113C474.535 107.771 472.528 103.01 469.243 99.4468ZM467.953 127.832L467.898 127.777L454.405 114.284L440.982 127.708C444.546 130.993 449.306 133 454.535 133C459.698 133 464.404 131.044 467.953 127.832Z" fill="white"/>
</svg>

<svg xmlns="http://www.w3.org/2000/svg" width="600" height="160" fill="none"><path fill="#fff" fill-rule="evenodd" d="M76.46 31.5h-8v19h8zm2 19h69.49799999999999c-.521-10.581-9.265-19-19.975-19H78.46zm69.498 2H78.46v19h49.523c10.71 0 19.454-8.419 19.975-19m-71.498 19v-19h-8v19zm-10-19H28c.521 10.581 9.265 19 19.975 19H66.46zm0-2v-19H47.975c-10.71 0-19.454 8.419-19.975 19h38.46M230.652 31.5h-10.694a8 8 0 0 0-8 8v10.87h18.694zm-18.694 20.87V63.5a8 8 0 0 0 8 8h10.694V52.37zm20.694 19.13h11.306a8 8 0 0 0 8-8V52.37h-19.306V71.5m19.306-21.13V39.5a8 8 0 0 0-8-8h-11.306v18.87zM354.563 31.5H337.39l8.587 8.586zm-20.001 0h-10.604a8 8 0 0 0-8 8v24c0 1.854.63 3.56 1.688 4.916L344.562 41.5zm-15.499 38.328a7.97 7.97 0 0 0 4.895 1.672h50.604l-28.585-28.585zM377.39 71.5h30.642a8 8 0 0 0 8-8v-24a8 8 0 0 0-8-8h-50.641l-10 10zM529.994 34.223a5.7 5.7 0 0 0-.72-1.536q-.45-.688-1.086-1.175a4.4 4.4 0 0 0-1.441-.731 6 6 0 0 0-1.775-.254q-1.723 0-3.07.879t-2.12 2.584q-.762 1.694-.762 4.13 0 2.457.762 4.163.762 1.704 2.12 2.594 1.357.88 3.153.88 1.63 0 2.819-.636a4.45 4.45 0 0 0 1.849-1.8q.619-1.125.646-2.616h-4.927v-3.072h8.677v2.605q0 2.786-1.17 4.82a8.05 8.05 0 0 1-3.216 3.134q-2.047 1.09-4.699 1.091-2.955 0-5.189-1.345-2.225-1.356-3.477-3.844-1.243-2.5-1.243-5.931 0-2.626.731-4.692.74-2.065 2.068-3.506a8.8 8.8 0 0 1 3.111-2.203q1.786-.762 3.884-.762 1.776 0 3.31.53a8.7 8.7 0 0 1 2.726 1.482 8.137 8.137 0 0 1 2.986 5.21zm-49.962-6.926v21.69h3.874v-7.33h4.093q2.475 0 4.166-.92 1.692-.933 2.559-2.553.866-1.62.866-3.707 0-2.065-.866-3.685-.856-1.632-2.538-2.564-1.67-.93-4.135-.931zm3.874 11.13h3.571q1.441 0 2.36-.508a3.2 3.2 0 0 0 1.357-1.398q.45-.89.449-2.044 0-1.155-.449-2.033-.438-.88-1.367-1.367-.92-.497-2.371-.497h-3.55zm10.689 10.56h4.135l1.768-5.349h8.04l1.772 5.349h4.135l-7.539-21.69h-4.783zm12.897-8.505-2.894-8.737h-.167l-2.889 8.737zm29.784-13.185v21.69h13.992v-3.294H541.15v-5.92h9.314v-3.294h-9.314V30.59h10.035v-3.293zm6.152 26.42a8.7 8.7 0 0 1 2.986.55q1.462.531 2.631 1.737 1.17 1.197 1.859 3.21t.689 4.977q.01 2.796-.585 5-.584 2.19-1.681 3.706-1.096 1.515-2.641 2.309-1.547.794-3.477.794-2.026 0-3.592-.805a6.8 6.8 0 0 1-2.517-2.203q-.96-1.398-1.18-3.198h3.811q.293 1.292 1.191 2.054.908.752 2.287.752 2.224 0 3.424-1.959 1.201-1.959 1.201-5.444h-.146a5.6 5.6 0 0 1-1.326 1.61 6 6 0 0 1-1.848 1.028q-1.023.36-2.172.36-1.88 0-3.383-.911a6.6 6.6 0 0 1-2.37-2.5q-.867-1.589-.878-3.632 0-2.119.961-3.802a7 7 0 0 1 2.704-2.67q1.733-.984 4.052-.963m.01 3.177q-1.127 0-2.036.562a3.96 3.96 0 0 0-1.42 1.503q-.512.943-.512 2.108.01 1.154.512 2.097a3.95 3.95 0 0 0 1.389 1.493q.888.55 2.025.551.846 0 1.577-.328a3.9 3.9 0 0 0 1.274-.911q.553-.594.856-1.345.313-.753.303-1.589a4.17 4.17 0 0 0-.522-2.054 4.06 4.06 0 0 0-1.41-1.515q-.887-.572-2.036-.572m-10.185 4.438h-3.905a5 5 0 0 0-.616-1.727 4.6 4.6 0 0 0-1.117-1.292 4.6 4.6 0 0 0-1.525-.794 5.9 5.9 0 0 0-1.827-.275q-1.744 0-3.091.89-1.347.878-2.109 2.584-.762 1.695-.762 4.14 0 2.49.762 4.194.772 1.695 2.109 2.563 1.347.858 3.08.858.962 0 1.796-.254a4.9 4.9 0 0 0 1.514-.773 4.5 4.5 0 0 0 1.139-1.25 4.8 4.8 0 0 0 .647-1.694l3.905.02a8.6 8.6 0 0 1-.95 2.903 8.5 8.5 0 0 1-1.89 2.393 8.7 8.7 0 0 1-2.736 1.61Q526.111 76 524.2 76q-2.819 0-5.033-1.324-2.213-1.324-3.487-3.823-1.274-2.5-1.274-5.994 0-3.507 1.284-5.995 1.284-2.499 3.498-3.823t5.012-1.324q1.786 0 3.321.508a8.5 8.5 0 0 1 2.735 1.494 7.9 7.9 0 0 1 1.974 2.393q.783 1.409 1.023 3.22m29.457-7.318h-8.019v21.69h3.874V67.76h3.942l4.202 7.944h4.323l-4.625-8.587a7 7 0 0 0 .407-.183q1.69-.837 2.558-2.361.877-1.537.877-3.622 0-2.076-.867-3.633-.855-1.568-2.537-2.436-1.67-.868-4.135-.868m-4.145 10.484h3.571q1.441 0 2.36-.402.918-.412 1.357-1.197.449-.795.449-1.949 0-1.155-.449-1.97-.449-.825-1.368-1.25-.918-.433-2.37-.433h-3.55zm-4.07-37.258h15.927v21.746h-15.927zm-42.88 26.717h-31.548v21.747h31.548zM173.192 93h-28.713c-10.666 0-19.382 8.35-19.968 18.87h48.681zm-48.694 20.87c.456 10.642 9.227 19.13 19.981 19.13h28.713v-19.13zM175.192 133h29.362c10.754 0 19.526-8.488 19.981-19.13h-49.342999999999996V133m49.331-21.13C223.937 101.35 215.22 93 204.554 93h-29.362v18.87h49.331M295.035 93.14a8 8 0 0 0-6.5 7.86v11h6.5zm-6.5 20.86v11a8.004 8.004 0 0 0 6.5 7.86V114zm8.5 19h23.5a8 8 0 0 0 8-8v-11h-31.5zm31.5-21v-11a8 8 0 0 0-8-8h-23.5v19zM355.035 93h-16.5a8 8 0 0 0-8 8v1h24.5zm-24.5 11v21a8 8 0 0 0 8 8h16.5v-29zm26.5 29h5.5a8 8 0 0 0 8-8v-21h-13.5zm13.5-31v-1a8 8 0 0 0-8-8h-5.5v9zM439.704 99.583A19.93 19.93 0 0 0 434.535 113c0 5.097 1.907 9.749 5.046 13.281l13.41-13.411zm1.414-1.415 13.287 13.288 13.411-13.41A19.93 19.93 0 0 0 454.535 93a19.93 19.93 0 0 0-13.417 5.168m28.125 1.279L455.82 112.87l13.492 13.493.055.054A19.92 19.92 0 0 0 474.535 113a19.93 19.93 0 0 0-5.292-13.553m-1.29 28.385-.055-.055-13.493-13.493-13.423 13.424A19.93 19.93 0 0 0 454.535 133c5.163 0 9.869-1.956 13.418-5.168" clip-rule="evenodd"/></svg>
